image/icons/Group.svg

<svg width="39" height="43" viewBox="0 0 39 43" fill="none" xmlns="http://www.w3.org/2000/svg">
<path d="M33.0647 35.7308H27.166V42.5937H33.0647V35.7308Z" fill="#FFEACF"/>
<path d="M29.7823 35.7308H27.166V42.5937H29.7823V35.7308Z" fill="#FFD59A"/>
<path d="M29.595 39.4576H29.316C25.3579 39.4576 22.1494 36.2491 22.1494 32.291V28.3642C22.1494 24.4062 25.3579 21.1976 29.316 21.1976H29.595C33.553 21.1976 36.7616 24.4062 36.7616 28.3642V32.2908C36.7616 36.2489 33.5529 39.4576 29.595 39.4576Z" fill="#FFEACF"/>
<path d="M22.9215 28.7335L20.2808 31.9055C20.17 32.0386 20.1094 32.2059 20.1094 32.3789V32.4409C20.1094 32.8505 20.4427 33.1824 20.8538 33.1824H22.9215V28.7335Z" fill="#FFD59A"/>
<path d="M24.7657 32.1801V28.4752C24.7657 24.9006 27.3529 21.9284 30.7637 21.3142C30.3392 21.2377 29.9022 21.1976 29.4556 21.1976C25.4205 21.1976 22.1494 24.4559 22.1494 28.4752V32.1801C22.1494 36.1993 25.4205 39.4576 29.4556 39.4576C29.9021 39.4576 30.3392 39.4175 30.7637 39.3411C27.3529 38.7269 24.7657 35.7544 24.7657 32.1801Z" fill="#FFD59A"/>
<path d="M34.4582 26.1855H23.2845C21.5323 26.1855 20.1118 24.765 20.1118 23.0126V21.0355C20.1118 20.6348 20.4365 20.3102 20.8371 20.3102H32.6454C34.648 20.3102 36.2714 21.9335 36.2714 23.9362V24.3723C36.2712 25.3737 35.4596 26.1855 34.4582 26.1855Z" fill="#A56021"/>
<path d="M32.1748 33.9178V25.8174C32.1748 24.8162 32.9866 24.0044 33.9878 24.0044H36.2601C37.2614 24.0044 38.0731 24.8162 38.0731 25.8174V33.9178C38.0731 34.919 37.2614 35.7308 36.2601 35.7308H33.9878C32.9864 35.7308 32.1748 34.919 32.1748 33.9178Z" fill="#A56021"/>
<path d="M36.6665 34.4451C36.3752 34.4451 36.1392 34.209 36.1392 33.9178V28.3641C36.1392 28.0729 36.3752 27.8368 36.6665 27.8368C36.9578 27.8368 37.1938 28.0729 37.1938 28.3641V33.9178C37.1938 34.2089 36.9578 34.4451 36.6665 34.4451Z" fill="#BF6C0D"/>
<path d="M32.1745 32.9854C33.6481 32.9854 34.8427 31.7955 34.8427 30.3276C34.8427 28.8597 33.6481 27.6698 32.1745 27.6698C30.7009 27.6698 29.5063 28.8597 29.5063 30.3276C29.5063 31.7955 30.7009 32.9854 32.1745 32.9854Z" fill="#FFEACF"/>
<path d="M5.4641 22.6899L11.3628 22.6899L11.3628 15.8271L5.4641 15.8271L5.4641 22.6899Z" fill="#FFEACF"/>
<path d="M11.3624 15.8269H8.74609V22.6898H11.3624V15.8269Z" fill="#FFD59A"/>
<path d="M8.9332 19.5537H9.21217C13.1702 19.5537 16.3788 16.3451 16.3788 12.3871V8.4603C16.3788 4.50224 13.1702 1.2937 9.21217 1.2937H8.9332C4.97514 1.2937 1.7666 4.50224 1.7666 8.4603V12.3869C1.7666 16.345 4.97514 19.5537 8.9332 19.5537Z" fill="#FFEACF"/>
<path d="M15.6069 8.82959L18.2477 12.0016C18.3584 12.1346 18.4191 12.302 18.4191 12.4749V12.537C18.4191 12.9466 18.0858 13.2784 17.6746 13.2784H15.6069V8.82959Z" fill="#FFD59A"/>
<path d="M13.7627 12.2762V8.57122C13.7627 4.99671 11.1755 2.02442 7.76465 1.41024C8.18916 1.33378 8.62615 1.2937 9.07281 1.2937C13.1079 1.2937 16.379 4.55198 16.379 8.57122V12.2762C16.379 16.2954 13.1079 19.5537 9.07281 19.5537C8.62633 19.5537 8.18916 19.5136 7.76465 19.4371C11.1755 18.823 13.7627 15.8507 13.7627 12.2762Z" fill="#FFD59A"/>
<path d="M6.35391 14.0138V5.91347C6.35391 4.91222 5.54215 4.10046 4.5409 4.10046H2.26857C1.26732 4.10046 0.455566 4.91222 0.455566 5.91347V14.0138C0.455566 15.0151 1.26732 15.8268 2.26857 15.8268H4.5409C5.54215 15.8268 6.35391 15.0151 6.35391 14.0138Z" fill="#A56021"/>
<path d="M36.4175 1.95068H23.5266C22.339 1.95068 21.3765 2.91344 21.3765 4.10084V10.5582C21.3765 11.7457 22.3392 12.7083 23.5266 12.7083H24.3299C24.4997 14.3637 23.4205 15.3816 22.6173 15.9012C22.3826 16.0531 22.4823 16.4166 22.7616 16.4286C26.3224 16.5825 27.485 14.1406 27.8602 12.7083H36.4175C37.6051 12.7083 38.5677 11.7456 38.5677 10.5582V4.10102C38.5677 2.91344 37.6049 1.95068 36.4175 1.95068Z" fill="#F87064"/>
<path d="M27.2831 12.7084H26.4797C25.2922 12.7084 24.3296 11.7457 24.3296 10.5583V4.10096C24.3296 2.91338 25.2923 1.95081 26.4797 1.95081H23.5266C22.339 1.95081 21.3765 2.91356 21.3765 4.10096V10.5583C21.3765 11.7459 22.3392 12.7084 23.5266 12.7084H24.3299C24.4997 14.3638 23.4205 15.3817 22.6173 15.9013C22.3826 16.0532 22.4823 16.4167 22.7616 16.4287C24.2009 16.4909 25.2482 16.1288 26.0102 15.5807C26.7137 15.0047 27.4232 14.0734 27.2831 12.7084Z" fill="#FFC34C"/>
<path d="M27.2831 12.7084H26.4797C25.2922 12.7084 24.3296 11.7457 24.3296 10.5583V4.10096C24.3296 2.91338 25.2923 1.95081 26.4797 1.95081H23.5266C22.339 1.95081 21.3765 2.91356 21.3765 4.10096V10.5583C21.3765 11.7459 22.3392 12.7084 23.5266 12.7084H24.3299C24.4997 14.3638 23.4205 15.3817 22.6173 15.9013C22.3826 16.0532 22.4823 16.4167 22.7616 16.4287C24.2009 16.4909 25.2482 16.1288 26.0102 15.5807C26.7137 15.0047 27.4232 14.0734 27.2831 12.7084Z" fill="#FFC34C"/>
<path d="M27.2831 12.7084H26.4797C25.2922 12.7084 24.3296 11.7457 24.3296 10.5583V4.10096C24.3296 2.91338 25.2923 1.95081 26.4797 1.95081H23.5266C22.339 1.95081 21.3765 2.91356 21.3765 4.10096V10.5583C21.3765 11.7459 22.3392 12.7084 23.5266 12.7084H24.3299C24.4997 14.3638 23.4205 15.3817 22.6173 15.9013C22.3826 16.0532 22.4823 16.4167 22.7616 16.4287C24.2009 16.4909 25.2482 16.1288 26.0102 15.5807C26.7137 15.0047 27.4232 14.0734 27.2831 12.7084Z" fill="#F87064"/>
<path d="M36.8276 7.86963H23.1167C22.8838 7.86963 22.6948 7.68066 22.6948 7.44775C22.6948 7.21484 22.8838 7.02588 23.1167 7.02588H36.8276C37.0605 7.02588 37.2495 7.21484 37.2495 7.44775C37.2495 7.68066 37.0605 7.86963 36.8276 7.86963Z" fill="white"/>
<path d="M36.8276 5.54919H23.1167C22.8838 5.54919 22.6948 5.36023 22.6948 5.12732C22.6948 4.89441 22.8838 4.70544 23.1167 4.70544H36.8276C37.0605 4.70544 37.2495 4.89441 37.2495 5.12732C37.2495 5.36041 37.0605 5.54919 36.8276 5.54919Z" fill="white"/>
<path d="M23.1167 7.02588C22.8838 7.02588 22.6948 7.21484 22.6948 7.44775C22.6948 7.68066 22.8838 7.86963 23.1167 7.86963H24.3296V7.02588H23.1167Z" fill="white"/>
<path d="M23.1167 4.70544C22.8838 4.70544 22.6948 4.89441 22.6948 5.12732C22.6948 5.36023 22.8838 5.54919 23.1167 5.54919H24.3296V4.70544H23.1167Z" fill="white"/>
<path d="M15.4732 24.1117H2.58229C1.39471 24.1117 0.432129 25.0744 0.432129 26.2618V32.7192C0.432129 33.9068 1.39488 34.8693 2.58229 34.8693H11.1397C11.5148 36.3016 12.6776 38.7435 16.2382 38.5896C16.5175 38.5774 16.6172 38.2139 16.3825 38.0622C15.5794 37.5426 14.5001 36.5247 14.6699 34.8693H15.4732C16.6608 34.8693 17.6235 33.9066 17.6235 32.7192V26.2618C17.6235 25.0743 16.6608 24.1117 15.4732 24.1117Z" fill="#F87064"/>
<path d="M3.38526 32.7192V26.2618C3.38526 25.0743 4.34801 24.1117 5.53541 24.1117H2.58229C1.39471 24.1117 0.432129 25.0744 0.432129 26.2618V32.7192C0.432129 33.9068 1.39488 34.8693 2.58229 34.8693H5.53541C4.34801 34.8695 3.38526 33.9068 3.38526 32.7192Z" fill="#F87064"/>
<path d="M15.8833 27.7103H2.17236C1.93945 27.7103 1.75049 27.5214 1.75049 27.2885C1.75049 27.0555 1.93945 26.8666 2.17236 26.8666H15.8833C16.1162 26.8666 16.3052 27.0555 16.3052 27.2885C16.3052 27.5214 16.1162 27.7103 15.8833 27.7103Z" fill="white"/>
<path d="M15.8833 30.0306H2.17236C1.93945 30.0306 1.75049 29.8417 1.75049 29.6088C1.75049 29.3759 1.93945 29.1869 2.17236 29.1869H15.8833C16.1162 29.1869 16.3052 29.3759 16.3052 29.6088C16.3052 29.8417 16.1162 30.0306 15.8833 30.0306Z" fill="white"/>
<path d="M10.8418 32.4268H2.19336C1.96045 32.4268 1.77148 32.2378 1.77148 32.0049C1.77148 31.772 1.96045 31.583 2.19336 31.583H10.8418C11.0747 31.583 11.2637 31.772 11.2637 32.0049C11.2637 32.2378 11.0747 32.4268 10.8418 32.4268Z" fill="white"/>
<path d="M2.19336 31.583C1.96045 31.583 1.77148 31.772 1.77148 32.0049C1.77148 32.2378 1.96045 32.4268 2.19336 32.4268H3.38516V31.583H2.19336Z" fill="white"/>
<path d="M2.17236 29.1869C1.93945 29.1869 1.75049 29.3759 1.75049 29.6088C1.75049 29.8417 1.93945 30.0306 2.17236 30.0306H3.38525V29.1869H2.17236Z" fill="white"/>
<path d="M2.17236 26.8666C1.93945 26.8666 1.75049 27.0555 1.75049 27.2885C1.75049 27.5214 1.93945 27.7103 2.17236 27.7103H3.38525V26.8666H2.17236Z" fill="white"/>
<path d="M12.2202 10.5015C12.7056 10.5015 13.0991 10.108 13.0991 9.62256C13.0991 9.13715 12.7056 8.74365 12.2202 8.74365C11.7348 8.74365 11.3413 9.13715 11.3413 9.62256C11.3413 10.108 11.7348 10.5015 12.2202 10.5015Z" fill="#A56021"/>
<path d="M26.1396 30.316C26.6251 30.316 27.0186 29.9225 27.0186 29.4371C27.0186 28.9517 26.6251 28.5582 26.1396 28.5582C25.6542 28.5582 25.2607 28.9517 25.2607 29.4371C25.2607 29.9225 25.6542 30.316 26.1396 30.316Z" fill="#A56021"/>
<path d="M26.4238 25.5864C27.2976 25.5864 28.0059 24.8781 28.0059 24.0044C28.0059 23.1307 27.2976 22.4224 26.4238 22.4224C25.5501 22.4224 24.8418 23.1307 24.8418 24.0044C24.8418 24.8781 25.5501 25.5864 26.4238 25.5864Z" fill="#8C4C17"/>
<path d="M23.6274 23.0126V21.0355C23.6274 20.6348 23.9521 20.3102 24.3527 20.3102H20.8371C20.4365 20.3102 20.1118 20.6348 20.1118 21.0355V23.0126C20.1118 24.7648 21.5323 26.1853 23.2845 26.1853H26.8001C25.0479 26.1855 23.6274 24.765 23.6274 23.0126Z" fill="#8C4C17"/>
<path d="M3.97119 14.0138V5.91347C3.97119 5.13089 4.46795 4.46626 5.16246 4.21226C4.96822 4.14125 4.75957 4.10046 4.54072 4.10046H2.26857C1.26732 4.10046 0.455566 4.91222 0.455566 5.91347V14.0138C0.455566 15.0151 1.26732 15.8268 2.26857 15.8268H4.5409C4.75957 15.8268 4.9684 15.7862 5.16264 15.7152C4.46795 15.4612 3.97119 14.7964 3.97119 14.0138Z" fill="#8C4C17"/>
<path d="M4.06984 6.28139H15.192C16.6939 6.28139 17.9116 5.06375 17.9116 3.56187V3.12014C17.9116 1.62125 16.6966 0.40625 15.1977 0.40625H5.88285C3.88018 0.40625 2.25684 2.02959 2.25684 4.03227V4.46838C2.25684 5.4698 3.06859 6.28139 4.06984 6.28139Z" fill="#A56021"/>
<path d="M15.1919 5.40255C14.9006 5.40255 14.6646 5.16647 14.6646 4.87521C14.6646 4.58394 14.9006 4.34786 15.1919 4.34786C15.6252 4.34786 15.9778 3.99524 15.9778 3.56177C15.9778 3.2705 16.2139 3.03442 16.5052 3.03442C16.7964 3.03442 17.0325 3.2705 17.0325 3.56177C17.0327 4.57673 16.2069 5.40255 15.1919 5.40255Z" fill="#BF6C0D"/>
<path d="M8.46777 4.67615C9.34151 4.67615 10.0498 3.96785 10.0498 3.09412C10.0498 2.22038 9.34151 1.51208 8.46777 1.51208C7.59404 1.51208 6.88574 2.22038 6.88574 3.09412C6.88574 3.96785 7.59404 4.67615 8.46777 4.67615Z" fill="#8C4C17"/>
<path d="M5.77246 4.46838V4.03227C5.77246 2.02959 7.39598 0.40625 9.39848 0.40625H5.88285C3.88018 0.40625 2.25684 2.02959 2.25684 4.03227V4.46838C2.25684 5.46963 3.06859 6.28139 4.06984 6.28139H7.58547C6.58422 6.28139 5.77246 5.4698 5.77246 4.46838Z" fill="#8C4C17"/>
<path d="M6.35373 13.0814C7.82732 13.0814 9.02191 11.8914 9.02191 10.4236C9.02191 8.95569 7.82732 7.76575 6.35373 7.76575C4.88013 7.76575 3.68555 8.95569 3.68555 10.4236C3.68555 11.8914 4.88013 13.0814 6.35373 13.0814Z" fill="#FFEACF"/>
<path d="M36.8276 10.1659H28.1792C27.9463 10.1659 27.7573 9.97693 27.7573 9.74402C27.7573 9.51111 27.9463 9.32214 28.1792 9.32214H36.8276C37.0605 9.32214 37.2495 9.51111 37.2495 9.74402C37.2495 9.97693 37.0605 10.1659 36.8276 10.1659Z" fill="white"/>
</svg>

<svg xmlns="http://www.w3.org/2000/svg" fill="none" viewBox="0 0 39 43"><path fill="#FFEACF" d="M33.065 35.73h-5.899v6.864h5.899V35.73z"/><path fill="#FFD59A" d="M29.782 35.73h-2.616v6.864h2.616V35.73z"/><path fill="#FFEACF" d="M29.595 39.458h-.279a7.166 7.166 0 0 1-7.167-7.167v-3.927a7.167 7.167 0 0 1 7.167-7.166h.279a7.167 7.167 0 0 1 7.167 7.166v3.927a7.167 7.167 0 0 1-7.167 7.167z"/><path fill="#FFD59A" d="M22.922 28.733l-2.641 3.172a.74.74 0 0 0-.172.474v.062c0 .41.334.741.745.741h2.068v-4.449z"/><path fill="#FFD59A" d="M24.766 32.18v-3.705c0-3.574 2.587-6.547 5.998-7.16a7.37 7.37 0 0 0-1.308-.117c-4.035 0-7.307 3.258-7.307 7.277v3.705c0 4.02 3.271 7.278 7.307 7.278.446 0 .883-.04 1.308-.117-3.411-.614-5.998-3.587-5.998-7.16z"/><path fill="#A56021" d="M34.458 26.186H23.285a3.173 3.173 0 0 1-3.173-3.173v-1.978c0-.4.325-.725.725-.725h11.808a3.626 3.626 0 0 1 3.626 3.626v.436a1.813 1.813 0 0 1-1.813 1.814z"/><path fill="#A56021" d="M32.175 33.918v-8.1c0-1.002.812-1.814 1.813-1.814h2.272c1.001 0 1.813.812 1.813 1.813v8.1a1.813 1.813 0 0 1-1.813 1.814h-2.272a1.813 1.813 0 0 1-1.813-1.813z"/><path fill="#BF6C0D" d="M36.666 34.445a.527.527 0 0 1-.527-.527v-5.554a.527.527 0 1 1 1.055 0v5.554a.527.527 0 0 1-.528.527z"/><path fill="#FFEACF" d="M32.175 32.985a2.663 2.663 0 0 0 2.668-2.657 2.663 2.663 0 0 0-2.669-2.658 2.663 2.663 0 0 0-2.668 2.658 2.663 2.663 0 0 0 2.669 2.657zM5.464 22.69h5.899v-6.863H5.464v6.863z"/><path fill="#FFD59A" d="M11.362 15.827H8.746v6.863h2.616v-6.863z"/><path fill="#FFEACF" d="M8.933 19.554h.28a7.167 7.167 0 0 0 7.166-7.167V8.46a7.167 7.167 0 0 0-7.167-7.166h-.279A7.167 7.167 0 0 0 1.767 8.46v3.927a7.167 7.167 0 0 0 7.166 7.167z"/><path fill="#FFD59A" d="M15.607 8.83l2.64 3.172c.111.133.172.3.172.473v.062c0 .41-.333.741-.744.741h-2.068V8.83z"/><path fill="#FFD59A" d="M13.763 12.276V8.571c0-3.574-2.588-6.547-5.998-7.16a7.374 7.374 0 0 1 1.308-.117c4.035 0 7.306 3.258 7.306 7.277v3.705c0 4.02-3.271 7.278-7.306 7.278-.447 0-.884-.04-1.308-.117 3.41-.614 5.998-3.586 5.998-7.16z"/><path fill="#A56021" d="M6.354 14.014v-8.1A1.813 1.813 0 0 0 4.54 4.1H2.269A1.813 1.813 0 0 0 .456 5.913v8.1c0 1.002.811 1.814 1.813 1.814H4.54a1.813 1.813 0 0 0 1.813-1.813z"/><path fill="#F87064" d="M36.417 1.95h-12.89a2.15 2.15 0 0 0-2.15 2.15v6.458a2.15 2.15 0 0 0 2.15 2.15h.803c.17 1.656-.91 2.674-1.713 3.193-.234.152-.135.516.145.528 3.56.154 4.723-2.288 5.098-3.72h8.557a2.15 2.15 0 0 0 2.15-2.15V4.1a2.15 2.15 0 0 0-2.15-2.15z"/><path fill="#FFC34C" d="M27.283 12.708h-.803a2.15 2.15 0 0 1-2.15-2.15V4.101a2.15 2.15 0 0 1 2.15-2.15h-2.953a2.15 2.15 0 0 0-2.15 2.15v6.457a2.15 2.15 0 0 0 2.15 2.15h.803c.17 1.656-.91 2.674-1.713 3.193-.234.152-.135.516.145.528 1.439.062 2.486-.3 3.248-.848.704-.576 1.413-1.508 1.273-2.873z"/><path fill="#FFC34C" d="M27.283 12.708h-.803a2.15 2.15 0 0 1-2.15-2.15V4.101a2.15 2.15 0 0 1 2.15-2.15h-2.953a2.15 2.15 0 0 0-2.15 2.15v6.457a2.15 2.15 0 0 0 2.15 2.15h.803c.17 1.656-.91 2.674-1.713 3.193-.234.152-.135.516.145.528 1.439.062 2.486-.3 3.248-.848.704-.576 1.413-1.508 1.273-2.873z"/><path fill="#F87064" d="M27.283 12.708h-.803a2.15 2.15 0 0 1-2.15-2.15V4.101a2.15 2.15 0 0 1 2.15-2.15h-2.953a2.15 2.15 0 0 0-2.15 2.15v6.457a2.15 2.15 0 0 0 2.15 2.15h.803c.17 1.656-.91 2.674-1.713 3.193-.234.152-.135.516.145.528 1.439.062 2.486-.3 3.248-.848.704-.576 1.413-1.508 1.273-2.873z"/><path fill="#fff" d="M36.828 7.87H23.117a.422.422 0 0 1 0-.844h13.71a.422.422 0 0 1 0 .844zM36.828 5.55H23.117a.422.422 0 0 1 0-.845h13.71a.422.422 0 0 1 0 .844z"/><path fill="#fff" d="M23.117 7.026a.422.422 0 0 0 0 .844h1.213v-.844h-1.213zM23.117 4.705a.422.422 0 0 0 0 .844h1.213v-.844h-1.213z"/><path fill="#F87064" d="M15.473 24.112H2.583a2.15 2.15 0 0 0-2.15 2.15v6.457a2.15 2.15 0 0 0 2.15 2.15h8.557c.375 1.433 1.538 3.874 5.098 3.72.28-.012.38-.375.145-.527-.804-.52-1.883-1.537-1.713-3.193h.803a2.15 2.15 0 0 0 2.15-2.15v-6.457a2.15 2.15 0 0 0-2.15-2.15z"/><path fill="#F87064" d="M3.385 32.72v-6.458a2.15 2.15 0 0 1 2.15-2.15H2.582a2.15 2.15 0 0 0-2.15 2.15v6.457a2.15 2.15 0 0 0 2.15 2.15h2.953a2.15 2.15 0 0 1-2.15-2.15z"/><path fill="#fff" d="M15.883 27.71H2.173a.422.422 0 0 1 0-.843h13.71a.422.422 0 0 1 0 .843zM15.883 30.03H2.173a.422.422 0 0 1 0-.843h13.71a.422.422 0 0 1 0 .844zM10.842 32.427H2.193a.422.422 0 0 1 0-.844h8.649a.422.422 0 0 1 0 .844z"/><path fill="#fff" d="M2.193 31.583a.422.422 0 0 0 0 .844h1.192v-.844H2.193zM2.172 29.187a.422.422 0 0 0 0 .844h1.213v-.844H2.172zM2.172 26.867a.422.422 0 0 0 0 .843h1.213v-.843H2.172z"/><path fill="#A56021" d="M12.22 10.502a.879.879 0 1 0 0-1.758.879.879 0 0 0 0 1.758zM26.14 30.316a.879.879 0 1 0 0-1.758.879.879 0 0 0 0 1.758z"/><path fill="#8C4C17" d="M26.424 25.586a1.582 1.582 0 1 0 0-3.164 1.582 1.582 0 0 0 0 3.164z"/><path fill="#8C4C17" d="M23.627 23.013v-1.978c0-.4.325-.725.726-.725h-3.516c-.4 0-.725.325-.725.726v1.977a3.173 3.173 0 0 0 3.173 3.172H26.8a3.172 3.172 0 0 1-3.173-3.172zM3.971 14.014v-8.1c0-.783.497-1.448 1.191-1.702a1.805 1.805 0 0 0-.621-.112H2.269A1.813 1.813 0 0 0 .456 5.913v8.1c0 1.002.811 1.814 1.813 1.814H4.54c.219 0 .427-.04.622-.112a1.812 1.812 0 0 1-1.192-1.701z"/><path fill="#A56021" d="M4.07 6.281h11.122a2.72 2.72 0 0 0 2.72-2.72v-.44A2.714 2.714 0 0 0 15.198.405H5.883a3.626 3.626 0 0 0-3.626 3.626v.436c0 1.002.812 1.813 1.813 1.813z"/><path fill="#BF6C0D" d="M15.192 5.403a.527.527 0 1 1 0-1.055.787.787 0 0 0 .786-.786.527.527 0 1 1 1.054 0c0 1.015-.825 1.84-1.84 1.84z"/><path fill="#8C4C17" d="M8.468 4.676a1.582 1.582 0 1 0 0-3.164 1.582 1.582 0 0 0 0 3.164z"/><path fill="#8C4C17" d="M5.772 4.468v-.436A3.626 3.626 0 0 1 9.398.406H5.883a3.626 3.626 0 0 0-3.626 3.626v.436c0 1.002.812 1.813 1.813 1.813h3.515a1.813 1.813 0 0 1-1.813-1.813z"/><path fill="#FFEACF" d="M6.354 13.081a2.663 2.663 0 0 0 2.668-2.657 2.663 2.663 0 0 0-2.668-2.658 2.663 2.663 0 0 0-2.668 2.658 2.663 2.663 0 0 0 2.668 2.657z"/><path fill="#fff" d="M36.828 10.166h-8.649a.422.422 0 0 1 0-.844h8.649a.422.422 0 0 1 0 .844z"/></svg>
